lib/svgs/team-notebook.svg

<?xml version="1.0" encoding="UTF-8"?>
<svg width="16px" height="16px" viewBox="0 0 16 16" version="1.1" xmlns="http://www.w3.org/2000/svg" xmlns:xlink="http://www.w3.org/1999/xlink">
    <!-- Generator: sketchtool 51.3 (57544) - http://www.bohemiancoding.com/sketch -->
    <title>team/team-notebook</title>
    <desc>Created with sketchtool.</desc>
    <defs></defs>
    <g id="Icons" stroke="none" stroke-width="1" fill="none" fill-rule="evenodd">
        <g id="Web" transform="translate(-243.000000, -2444.000000)" fill="#000000">
            <g id="team/team-notebook" transform="translate(243.000000, 2444.000000)">
                <path d="M13.8634969,0 L1.86649694,0 C1.46659695,0 1.19999695,0.266599998 1.19999695,0.666499996 L1.19999695,15.3294999 C1.19999695,15.7293999 1.46659695,15.9959999 1.86649694,15.9959999 L13.8634969,15.9959999 C14.2633969,15.9959999 14.5299969,15.7293999 14.5299969,15.3294999 L14.5299969,0.666499996 C14.5299969,0.266599998 14.2633969,0 13.8634969,0 L13.8634969,0 L13.8634969,0 M4.53249693,10.6639999 C4.53249693,9.53094995 5.39894692,8.66449995 6.53199692,8.66449995 L9.1979969,8.66449995 C10.3310469,8.66449995 11.1974969,9.53094995 11.1974969,10.6639999 L4.53249693,10.6639999 L4.53249693,10.6639999 L4.53249693,10.6639999 M6.53199692,5.99849997 C6.53199692,5.26534997 7.13184691,4.66549997 7.86499691,4.66549997 C8.59814691,4.66549997 9.1979969,5.26534997 9.1979969,5.99849997 L9.1979969,6.66499996 C9.1979969,7.39814996 8.59814691,7.99799995 7.86499691,7.99799995 C7.13184691,7.99799995 6.53199692,7.39814996 6.53199692,6.66499996 L6.53199692,5.99849997 L6.53199692,5.99849997 L6.53199692,5.99849997" id="Shape"></path>
            </g>
        </g>
    </g>
</svg>

<svg xmlns="http://www.w3.org/2000/svg" viewBox="0 0 16 16">
    <path d="M13.863 0H1.866c-.4 0-.666.267-.666.666V15.33c0 .4.267.667.666.667h11.997c.4 0 .667-.267.667-.667V.666c0-.4-.267-.666-.667-.666m-9.33 10.664c0-1.133.866-2 1.999-2h2.666c1.133 0 2 .867 2 2H4.531m2-4.666c0-.733.6-1.333 1.333-1.333s1.333.6 1.333 1.333v.667c0 .733-.6 1.333-1.333 1.333s-1.333-.6-1.333-1.333v-.667"/>
</svg>
